!!!OTL: I Got a Robe
!!!ARE: United States of America
!!!AGN: Negro Spiritual
!!!AMD: Pentatonic
**kern
=1-
*clefG2
*k[f#]
*M2/4
*MM84
{16g/LK
8g/
16g/Jk
4b/}
=2
{16g/LK
8g/
16g/Jk
4b/}
=3
{16b/LL
16b/J
8b/J
16b/LL
16a/
16g/
16a/JJ
=4
4.b/}
8r
=5
{16b/LL
16b/
16b/
16b/JJ
16b/LL
16a/
16g/
16g/JJ
=6
16a/LK
8a/
16a/Jk
(16a/LL
16g/)}
{16e/
16e/JJ
=7
8g/L
16g/L
[16a/JJ
16a/LL]
16g/J
8e/J
=8
16d/LK
[8.g/J
4g/]}
=9
{16d/LK
[8.a/J
4a/]
=10
16g/LK
[8.b/J
4b/]}
=11
{16b/LL
16b/
16b/
16b/JJ
16b/LL
16a/J
8g/J
=12
16a/LK
8a/
[16a/Jk
16a/LL]
16g/J
8e/J}
=13
{16d/LK
[8.g/J
4g/]
=14
16d/LK
[8.a/J
8a/L]}
{16g/L
16a/JJ
=15
8b/L
16b/L
[16a/JJ
16a/LL]
16g/J
8e/J
=16
16d/LK
[8.g/J
4g/]}
==
*-
